Cursos Origamid/Web-Design/Bikcraft/Design/bikcraft.svg

<?xml version="1.0" encoding="utf-8"?>
<svg width="100" height="62" fill="none" xmlns="http://www.w3.org/2000/svg"><path d="M9.125 9.562c1.563-.062 5.375-.187 7.313-.625-.063.813-.188 3.313-.188 8.063v2.125c1.75-1.438 3.188-2.188 4.938-2.188 2.125 0 3.562.938 4.5 2.313.812 1.313 1.25 3.125 1.25 5.063 0 5.812-2.75 9.125-8.313 9.125-1.5 0-3.313-.5-4.375-1.063-.75.25-1.75.75-2.75 1.063l-.313-.188c.063-1.688.063-4.875.063-9.188v-8c0-2-.063-3.375-.125-4.562-.063-.813-.25-.938-2.125-.938l.125-1zm9.5 22.688c2.125 0 3.125-2.563 3.125-7.313 0-1.937-.313-3.562-.875-4.625-.5-.812-1.125-1.25-2-1.25-.938 0-1.75.563-2.313 1.375-.312.438-.437.813-.437 5.75 0 4.063.188 4.188.438 4.688.437.938 1.25 1.375 2.062 1.375zm19.25.813c-1.313 0-2.625-.126-4.688-.126-2.187 0-3.25.126-4.312.126V32c1.75-.063 2-.375 2.063-1.063.062-.75.125-1.937.125-3.875v-4c0-1.625 0-2.937-.063-3.5-.063-.562-.313-.75-1.938-.687v-1.063c2.188-.187 4.813-.25 6.938-.687-.063.813-.125 2.313-.125 5.75v4.313c0 2 .063 2.875.125 3.75.063.875.313 1 1.875 1.187v.938zM33.187 9.875c1.626 0 2.563.938 2.563 2.625 0 1.438-1.063 2.438-2.688 2.438-1.437 0-2.437-1-2.437-2.438 0-1.5 1-2.625 2.563-2.625zm6.313-.313c2.438-.062 5.313-.312 6.813-.625a235.542 235.542 0 0 0-.126 7.75V24.5c1.188-.313 3.75-3.438 4.75-5.25.188-.375.188-.563-.312-.563l-1.375-.125V17.5c2.313.063 4.688-.063 7.063-.188v1.063c-1.75.188-2.438.313-3.126.875-.937.813-2 1.938-3 3.125.75 1.563 3.876 7.313 5.063 8.875.375.563.938.75 1.563.75l.874.063-.062 1.062c-3 0-5.563.125-6.938.375-.75-1.75-3-6-3.687-7.313-.375-.687-.563-.937-.813-.875 0 2.563-.062 3.813.063 5.625.063.813.25 1.063 1.938 1.125v1.063c-1.188 0-2.438-.125-4.5-.125-2.438 0-3.5.125-4.438.125v-1.063c1.625-.062 1.875-.374 1.938-1 .062-.75.124-2.375.124-5.625v-8.062c0-2.563 0-4.5-.062-6.125 0-.375-.25-.563-.75-.563h-1.063l.063-1.125zM24.438 48.5c-1.063 3.375-3.125 5-6.563 5-2.938 0-4.813-.813-6.125-2.563-1-1.312-1.5-3.25-1.5-5.437 0-4.813 2.938-8.5 8.313-8.5 3.25 0 5.625 1.5 5.625 3.938 0 1.687-1.375 2.374-2.5 2.374-.375 0-.938-.124-1.25-.312-.375-.25-.563-.625-.438-1.125.063-.5.188-.813.188-1.313 0-1.562-.563-2.312-1.75-2.312-1.938 0-2.938 2.813-2.938 6.688 0 1.562.188 3.312.75 4.374.625 1.438 1.625 2.25 3.125 2.25 1.875 0 3.063-1.062 3.938-3.5l1.125.438zM28 43.938c0-2-.063-3.563-.188-4.376-.062-.437-.312-.624-.75-.624h-1.125v-1.063c1.875-.063 4.438-.188 6.25-.75l.188.125c.125.75.25 2.563.313 3.688h.124C33.626 38.75 34.75 37 37.063 37c1.313 0 2.313 1.063 2.313 2.5 0 2.063-1.563 2.688-2.188 2.688-.624 0-1.062-.188-1.25-.626-.312-.687-.5-1.062-1.124-1.062-.688 0-1.063.625-1.5 1.625-.188.563-.313 1.188-.313 2.25 0 3.563 0 5.563.063 6.438.062.874.374 1.124 2.874 1.187l-.062 1.063c-1.75-.063-3.313-.126-5.125-.126-1.875 0-3.25.063-4.813.126L26.125 52c1.5-.063 1.875-.25 1.875-.875.063-.875.125-2.563.125-4.5v-2.688H28zm21.188-2.875c0-1.876-.626-2.876-1.876-2.876-1.437 0-2.124.813-2.124 2.313 0 .438.062.813.124 1.188.063.374-.062.75-.374.937-.438.313-1.188.563-1.75.563C42 43.188 41 42.624 41 41.25c0-2 2.938-4.25 7.063-4.25 3.374 0 4.874 1.375 5.437 2.25.313.5.5 1.063.5 1.688v9.187c0 1.063.313 1.313.688 1.313.5 0 1.062-.813 1.312-2.188l1.063.5c-.563 2.688-2.188 3.813-4.438 3.813-1.938 0-3-.813-3.313-2.438-1.5 1.5-3.062 2.438-4.687 2.438-2.625 0-4.375-1.75-4.375-4.626 0-1.75.75-2.75 2.063-3.312 2.124-.938 5.312-1.875 6.874-3v-1.563zM45.25 48c0 1.375.563 2.875 1.938 2.875 1 0 1.437-.625 1.75-1.25.124-.313.187-.875.187-1.5v-4.25c-.688.438-1.75.938-2.563 1.438-.75.5-1.312 1.124-1.312 2.687zm12.375-10.437l2 .062v-1c.063-2.625.688-4.563 2.063-5.938 1.25-1.25 2.75-1.875 4.562-1.875 2.563 0 3.938 1.25 3.938 2.875 0 1.188-1 2-2.376 2-.75 0-1.25-.5-1.25-1.25 0-1.312-.187-2.374-1.124-2.374-.626 0-1 .562-1.126 1.625-.124 1 .063 2.875.188 5.812h3.063l-.188 1.25-2.875.188c-.063 1.187-.063 3.25-.063 5.687 0 2.313 0 4.375.063 6 .063.813.188 1.125.875 1.188.625.062 1.125.124 1.688.124L66.936 53c-1.187 0-3.062-.125-4.687-.125-1.688 0-3.688.125-4.813.125l.063-1.063c1.625-.062 1.875-.25 1.938-.937.124-1.063.124-2.688.124-4.875v-7.25l-2.124-.125.187-1.188z" fill="#000"/><path d="M79.063 37.563l-.126 1.187-3.812.25c0 1.313-.063 3.25-.063 5.875 0 2.75 0 4.625.126 5.75.062.813.374 1.188 1 1.188 1.312 0 2.124-1.438 2.437-2.75h.5l.438 1.437c-.75 1.813-2.626 3.063-5.376 3.063-1.5 0-2.812-.5-3.437-1.25-.438-.563-.625-1.25-.625-2.25 0-2.563.125-8.313.125-11.063l-2-.188.125-1.187h1.875c.063-1.188.063-2.563.063-3.813C72.5 33.25 74.124 32.563 75 32l.375.063a110.77 110.77 0 0 0-.188 5.562h3.876v-.063z" fill="#000"/><path d="M95 5v52H5V5h90zm5-5H0v62h100V0z" fill="#000"/></svg>

<svg width="100" height="62" viewBox="0 0 100 62" fill="none" xmlns="http://www.w3.org/2000/svg">
<path d="M9.125 9.562C10.688 9.5 14.5 9.375 16.438 8.937C16.375 9.75 16.25 12.25 16.25 17V19.125C18 17.687 19.438 16.937 21.188 16.937C23.313 16.937 24.75 17.875 25.688 19.25C26.5 20.563 26.938 22.375 26.938 24.313C26.938 30.125 24.188 33.438 18.625 33.438C17.125 33.438 15.312 32.938 14.25 32.375C13.5 32.625 12.5 33.125 11.5 33.438L11.187 33.25C11.25 31.562 11.25 28.375 11.25 24.062V16.062C11.25 14.062 11.187 12.687 11.125 11.5C11.062 10.687 10.875 10.562 9 10.562L9.125 9.562V9.562ZM18.625 32.25C20.75 32.25 21.75 29.687 21.75 24.937C21.75 23 21.437 21.375 20.875 20.312C20.375 19.5 19.75 19.062 18.875 19.062C17.937 19.062 17.125 19.625 16.562 20.437C16.25 20.875 16.125 21.25 16.125 26.187C16.125 30.25 16.313 30.375 16.563 30.875C17 31.813 17.813 32.25 18.625 32.25ZM37.875 33.063C36.562 33.063 35.25 32.937 33.187 32.937C31 32.937 29.937 33.063 28.875 33.063V32C30.625 31.937 30.875 31.625 30.938 30.937C31 30.187 31.063 29 31.063 27.062V23.062C31.063 21.437 31.063 20.125 31 19.562C30.937 19 30.687 18.812 29.062 18.875V17.812C31.25 17.625 33.875 17.562 36 17.125C35.937 17.938 35.875 19.438 35.875 22.875V27.188C35.875 29.188 35.938 30.063 36 30.938C36.063 31.813 36.313 31.938 37.875 32.125V33.063ZM33.187 9.875C34.813 9.875 35.75 10.813 35.75 12.5C35.75 13.938 34.687 14.938 33.062 14.938C31.625 14.938 30.625 13.938 30.625 12.5C30.625 11 31.625 9.875 33.188 9.875H33.187ZM39.5 9.562C41.938 9.5 44.813 9.25 46.313 8.937C46.2285 11.5195 46.1865 14.1031 46.187 16.687V24.5C47.375 24.187 49.937 21.062 50.937 19.25C51.125 18.875 51.125 18.687 50.625 18.687L49.25 18.562V17.5C51.563 17.563 53.938 17.437 56.313 17.312V18.375C54.563 18.563 53.875 18.688 53.187 19.25C52.25 20.063 51.187 21.188 50.187 22.375C50.937 23.938 54.063 29.688 55.25 31.25C55.625 31.813 56.188 32 56.813 32L57.687 32.063L57.625 33.125C54.625 33.125 52.062 33.25 50.687 33.5C49.937 31.75 47.687 27.5 47 26.187C46.625 25.5 46.437 25.25 46.187 25.312C46.187 27.875 46.125 29.125 46.25 30.937C46.313 31.75 46.5 32 48.188 32.062V33.125C47 33.125 45.75 33 43.688 33C41.25 33 40.188 33.125 39.25 33.125V32.062C40.875 32 41.125 31.688 41.188 31.062C41.25 30.312 41.312 28.687 41.312 25.437V17.375C41.312 14.812 41.312 12.875 41.25 11.25C41.25 10.875 41 10.687 40.5 10.687H39.437L39.5 9.562V9.562ZM24.438 48.5C23.375 51.875 21.313 53.5 17.875 53.5C14.937 53.5 13.062 52.687 11.75 50.937C10.75 49.625 10.25 47.687 10.25 45.5C10.25 40.687 13.188 37 18.563 37C21.813 37 24.188 38.5 24.188 40.938C24.188 42.625 22.813 43.312 21.688 43.312C21.313 43.312 20.75 43.188 20.438 43C20.063 42.75 19.875 42.375 20 41.875C20.063 41.375 20.188 41.062 20.188 40.562C20.188 39 19.625 38.25 18.438 38.25C16.5 38.25 15.5 41.063 15.5 44.938C15.5 46.5 15.688 48.25 16.25 49.312C16.875 50.75 17.875 51.562 19.375 51.562C21.25 51.562 22.438 50.5 23.313 48.062L24.438 48.5V48.5ZM28 43.938C28 41.938 27.937 40.375 27.812 39.562C27.75 39.125 27.5 38.938 27.062 38.938H25.937V37.875C27.812 37.812 30.375 37.687 32.187 37.125L32.375 37.25C32.5 38 32.625 39.813 32.688 40.938H32.812C33.626 38.75 34.75 37 37.063 37C38.376 37 39.376 38.063 39.376 39.5C39.376 41.563 37.813 42.188 37.188 42.188C36.564 42.188 36.126 42 35.938 41.562C35.626 40.875 35.438 40.5 34.814 40.5C34.126 40.5 33.751 41.125 33.314 42.125C33.126 42.688 33.001 43.313 33.001 44.375C33.001 47.938 33.001 49.938 33.064 50.813C33.126 51.687 33.438 51.937 35.938 52L35.876 53.063C34.126 53 32.563 52.937 30.751 52.937C28.876 52.937 27.501 53 25.938 53.063L26.125 52C27.625 51.937 28 51.75 28 51.125C28.063 50.25 28.125 48.562 28.125 46.625V43.937H28V43.938ZM49.188 41.063C49.188 39.187 48.562 38.187 47.312 38.187C45.875 38.187 45.188 39 45.188 40.5C45.188 40.938 45.25 41.313 45.312 41.688C45.375 42.062 45.25 42.438 44.938 42.625C44.5 42.938 43.75 43.188 43.188 43.188C42 43.188 41 42.624 41 41.25C41 39.25 43.938 37 48.063 37C51.437 37 52.937 38.375 53.5 39.25C53.813 39.75 54 40.313 54 40.938V50.125C54 51.188 54.313 51.438 54.688 51.438C55.188 51.438 55.75 50.625 56 49.25L57.063 49.75C56.5 52.438 54.875 53.563 52.625 53.563C50.687 53.563 49.625 52.75 49.312 51.125C47.812 52.625 46.25 53.563 44.625 53.563C42 53.563 40.25 51.813 40.25 48.937C40.25 47.187 41 46.187 42.313 45.625C44.437 44.687 47.625 43.75 49.187 42.625V41.062L49.188 41.063ZM45.25 48C45.25 49.375 45.813 50.875 47.188 50.875C48.188 50.875 48.625 50.25 48.938 49.625C49.062 49.312 49.125 48.75 49.125 48.125V43.875C48.437 44.313 47.375 44.813 46.562 45.313C45.812 45.813 45.25 46.437 45.25 48ZM57.625 37.563L59.625 37.625V36.625C59.688 34 60.313 32.062 61.688 30.687C62.938 29.437 64.438 28.812 66.25 28.812C68.813 28.812 70.188 30.062 70.188 31.687C70.188 32.875 69.188 33.687 67.812 33.687C67.062 33.687 66.562 33.187 66.562 32.437C66.562 31.125 66.375 30.063 65.438 30.063C64.812 30.063 64.438 30.625 64.312 31.688C64.188 32.688 64.375 34.563 64.5 37.5H67.563L67.375 38.75L64.5 38.938C64.437 40.125 64.437 42.188 64.437 44.625C64.437 46.938 64.437 49 64.5 50.625C64.563 51.438 64.688 51.75 65.375 51.813C66 51.875 66.5 51.937 67.063 51.937L66.936 53C65.749 53 63.874 52.875 62.249 52.875C60.561 52.875 58.561 53 57.436 53L57.499 51.937C59.124 51.875 59.374 51.687 59.437 51C59.561 49.937 59.561 48.312 59.561 46.125V38.875L57.437 38.75L57.624 37.562L57.625 37.563Z" fill="#0A0A0A"/>
<path d="M79.063 37.563L78.937 38.75L75.125 39C75.125 40.313 75.062 42.25 75.062 44.875C75.062 47.625 75.062 49.5 75.188 50.625C75.25 51.438 75.562 51.813 76.188 51.813C77.5 51.813 78.312 50.375 78.625 49.063H79.125L79.563 50.5C78.813 52.313 76.937 53.563 74.187 53.563C72.687 53.563 71.375 53.063 70.75 52.313C70.312 51.75 70.125 51.063 70.125 50.063C70.125 47.5 70.25 41.75 70.25 39L68.25 38.812L68.375 37.625H70.25C70.313 36.437 70.313 35.062 70.313 33.812C72.5 33.25 74.124 32.563 75 32L75.375 32.063C75.2658 33.9151 75.2031 35.7697 75.187 37.625H79.063V37.562V37.563Z" fill="#0A0A0A"/>
<path d="M95 5V57H5V5H95ZM100 0H0V62H100V0Z" fill="#0A0A0A"/>
</svg>
